X:356
T:Happy Marriage. (p)1696.PLFD1.356, The
A:England; London
M:6/4
L:1/4
Q:3/4=80
B:Playford, Dancing Master,9th Ed,1st Supp.,1696.
O:
H:1696.
Z:Chris Partington <www.cpartington.plus>
K:Dm
a|f>ed^c>de|f3e>fg|a>ba(fd)g|e3f3|
g>aba>gf|e>fe/d/^c>de|c>BAA>B^G|A3-A2:|
|:e|e>fe^c>de|A>d^cd2a|b2ag>fe|d>efe2f|
(ge)cf2g|afdb2a|(ge)cf>ge|f3f2g|
af/g/age/f/g|fd/e/fe^ce|a>gff>ed|d3-d2:|

